!!!!SEGMENT: pl-cz--iii-332--004_just-franciszek-kasper--dixit-dominus-tecum-principium.krn
!!!cenid: 17xx:909
!!!COM: Just, Franciszek Kasper
!!!COM-rismid: pe30098311
!!!CDT: 1717-1760
!!!CNT: Czech
!!!OPR: Dixit Dominus
!!!OTL: Tecum principium
!!!OMV: 004
!!!PDT:
!!!AGN: Sacred
!!!SMS-siglum: PL-CZ
!!!SMS-shelfmark: III-332
!!!SMS-shelfwork: 001-004 M
!!!SMS-variant:
!!!SMS-altvar:
!!!NIFC-rismid: 300000542
!!!URL-scan: http://repozytorium.nifc.pl/skany/pl-cz-nut--iii-332
!!!ONB-nifc: UWAGA: części Dixit Dominus: Dixit Dominus, Virgam virtutis tuae, Dominare in medio, Tecum principium, Juravit Dominus, Tu es sacerdos, Dominus a dextris, Judicabit in nationibus, De torrente, Gloria patri
!!!key: C
**kern	**fba	**dynam	**kern	**dynam	**kern	**dynam	**kern	**kern	**kern	**kern	**kern	**text	**kern	**kern	**kern
*part11	*part11	*part11	*part10	*part10	*part9	*part9	*part8	*part7	*part6	*part5	*part4	*part4	*part3	*part2	*part1
*staff11	*	*	*staff10	*	*staff9	*	*staff8	*staff7	*staff6	*staff5	*staff4	*staff4	*staff3	*staff2	*staff1
*Iempty	*	*	*Ivioln	*	*Ivioln	*	*Iempty	*Ibass	*Itenor	*Ialto	*Ivox	*	*Iempty	*Iempty	*Iempty
*I"Fundamento.	*	*	*I"Violino Secundo.	*	*I"Violino Primo.	*	*I"Basso Secundo.	*I"Basso.	*I"Tenore	*I"Alto.	*I"Canto.	*	*I"Clarino 2do.	*I"Clarino Primo exD.	*I"Oboa Solo
*I'Fund.	*	*	*I'Vn II	*	*I'Vn I	*	*I'B. 2	*I'B.	*I'T.	*I'A.	*I'C.	*	*I'Tr-ba 2	*I'Tr-ba 1	*I'Ob.
*ICklav	*	*	*ICstr	*	*ICstr	*	*ICvox	*ICvox	*ICvox	*ICvox	*ICvox	*	*ICbras	*ICbras	*ICww
*clefF4	*	*	*clefG2	*	*clefG2	*	*clefF4	*clefF4	*clefC4	*clefC3	*clefC1	*	*clefG2	*clefG2	*clefG2
*	*	*	*	*	*	*	*	*	*	*	*	*	*ITrd-1c-2	*ITrd-1c-2	*
*k[]	*	*	*k[]	*	*k[]	*	*k[]	*k[]	*k[]	*k[]	*k[cnfn]	*	*k[]	*k[]	*k[]
*	*	*	*	*	*	*	*	*	*	*	*	*	*C:	*C:	*
*M3/4	*	*	*M3/4	*	*M3/4	*	*M3/4	*M3/4	*M3/4	*M3/4	*M3/4	*	*M3/4	*M3/4	*M3/4
=1	=1	=1	=1	=1	=1	=1	=1	=1	=1	=1	=1	=1	=1	=1	=1
!	!	!	!	!	!	!	!LO:TX:a:i:t=tacet	!LO:TX:a:i:t=tacet	!LO:TX:a:i:t=tacet	!LO:TX:a:i:t=tacet	!	!	!LO:TX:a:i:t=tacet	!LO:TX:a:i:t=tacet	!LO:TX:a:i:t=tacet
!LO:TX:b:t=Tecum proncipius	!	!	!LO:TX:t=P:problem=błędny podpis Virgam Virtutis	!	!	!	!	!	!	!	!	!	!	!	!
!LO:TX:a:rj:i:t=Solo	!	!	!	!LO:DY:a	!LO:TX:t=P:problem=przy kluczu dwa kasowniki odnoszące się do tonacji poprzedniej części	!	!	!	!	!	!LO:TX:t=P:problem=przy kluczu dwa kasowniki odnoszące się do tonacji poprzedniej części	!	!	!	!
!	!	!	!	!	!	!	!	!	!	!	!LO:TX:a:t=23.	!	!	!	!
4c\	.	.	4cc\	f	4cc\	.	2.ryy	2.ryy	2.ryy	2.ryy	0.r	.	2.ryy	2.ryy	2.ryy
4c\	.	.	4cc\	.	4cc\	.	.	.	.	.	.	.	.	.	.
4B\	6	.	16gg\LL	.	16gg\LL	.	.	.	.	.	.	.	.	.	.
.	.	.	16ff\	.	16ff\	.	.	.	.	.	.	.	.	.	.
.	.	.	16ee\	.	16ee\	.	.	.	.	.	.	.	.	.	.
.	.	.	16dd\JJ	.	16dd\JJ	.	.	.	.	.	.	.	.	.	.
=2	=2	=2	=2	=2	=2	=2	=2	=2	=2	=2	=2	=2	=2	=2	=2
4A\	.	.	4cc\	.	4cc\	.	2.ryy	2.ryy	2.ryy	2.ryy	.	.	2.ryy	2.ryy	2.ryy
4A\	.	.	4cc\	.	4cc\	.	.	.	.	.	.	.	.	.	.
4E\	6	.	16gg\LL	.	16gg\LL	.	.	.	.	.	.	.	.	.	.
.	.	.	16ee\	.	16ee\	.	.	.	.	.	.	.	.	.	.
.	.	.	16dd\	.	16dd\	.	.	.	.	.	.	.	.	.	.
.	.	.	16cc\JJ	.	16cc\JJ	.	.	.	.	.	.	.	.	.	.
=3	=3	=3	=3	=3	=3	=3	=3	=3	=3	=3	=3	=3	=3	=3	=3
4F\	6	.	12dd\L	.	(12dd\L	.	2.ryy	2.ryy	2.ryy	2.ryy	.	.	2.ryy	2.ryy	2.ryy
.	.	.	12b\	.	12b\	.	.	.	.	.	.	.	.	.	.
.	.	.	12g\J	.	12g\J)	.	.	.	.	.	.	.	.	.	.
*	*	*	*Xtuplet	*	*	*	*	*	*	*	*	*	*	*	*
4G\	7	.	12d/L	.	12f/L	.	.	.	.	.	.	.	.	.	.
.	.	.	12c/	.	12e/	.	.	.	.	.	.	.	.	.	.
.	.	.	12d/J	.	12f/J	.	.	.	.	.	.	.	.	.	.
4GG/	.	.	8G/L	.	8d/L	.	.	.	.	.	.	.	.	.	.
.	.	.	8d/J	.	8f/J	.	.	.	.	.	.	.	.	.	.
=4	=4	=4	=4	=4	=4	=4	=4	=4	=4	=4	=4	=4	=4	=4	=4
4C/	5 4	.	4d/	.	4f/	.	2.ryy	2.ryy	2.ryy	2.ryy	.	.	2.ryy	2.ryy	2.ryy
4E\	6	.	4c/	.	4e/	.	.	.	.	.	.	.	.	.	.
4G\	.	.	4r	.	4r	.	.	.	.	.	.	.	.	.	.
=5	=5	=5	=5	=5	=5	=5	=5	=5	=5	=5	=5	=5	=5	=5	=5
*	*	*	*tuplet	*	*	*	*	*	*	*	*	*	*	*	*
4c\	.	.	12cc\L	.	12cc\L	.	2.ryy	2.ryy	2.ryy	2.ryy	0.r	.	2.ryy	2.ryy	2.ryy
.	.	.	12dd\	.	12dd\	.	.	.	.	.	.	.	.	.	.
.	.	.	12ee\J	.	12ee\J	.	.	.	.	.	.	.	.	.	.
4c\	.	.	12ee\L	.	12ee\L	.	.	.	.	.	.	.	.	.	.
.	.	.	12ff\	.	12ff\	.	.	.	.	.	.	.	.	.	.
.	.	.	12gg\J	.	12gg\J	.	.	.	.	.	.	.	.	.	.
4c\	.	.	12ee\L	.	12ee\L	.	.	.	.	.	.	.	.	.	.
.	.	.	12dd\	.	12dd\	.	.	.	.	.	.	.	.	.	.
.	.	.	12cc\J	.	12cc\J	.	.	.	.	.	.	.	.	.	.
=6	=6	=6	=6	=6	=6	=6	=6	=6	=6	=6	=6	=6	=6	=6	=6
4c\	.	.	12aa\L	.	12aa\L	.	2.ryy	2.ryy	2.ryy	2.ryy	.	.	2.ryy	2.ryy	2.ryy
.	.	.	12gg\	.	12gg\	.	.	.	.	.	.	.	.	.	.
.	.	.	12ff#X\J	.	12ff#X\J	.	.	.	.	.	.	.	.	.	.
!	!	!	!LO:TX:t=P::problem=cauda półnuty po prawej&colon; global	!	!LO:TX:t=P::problem=cauda półnuty po prawej&colon; global	!	!	!	!	!	!	!	!	!	!
.	.	.	.	.	8qqff#/	.	.	.	.	.	.	.	.	.	.
*	*	*	*2\right	*	*2\right	*	*	*	*	*	*	*	*	*	*
4B\	.	.	2gg\	.	2gg\	.	.	.	.	.	.	.	.	.	.
4G\	.	.	.	.	.	.	.	.	.	.	.	.	.	.	.
=7	=7	=7	=7	=7	=7	=7	=7	=7	=7	=7	=7	=7	=7	=7	=7
4c\	6	.	12cc\L	.	12cc\L	.	2.ryy	2.ryy	2.ryy	2.ryy	.	.	2.ryy	2.ryy	2.ryy
.	.	.	12b\	.	12b\	.	.	.	.	.	.	.	.	.	.
.	.	.	12a\J	.	12a\J	.	.	.	.	.	.	.	.	.	.
*	*	*	*Xtuplet	*	*	*	*	*	*	*	*	*	*	*	*
4d\	6 4	.	12b/L	.	12b/L	.	.	.	.	.	.	.	.	.	.
.	.	.	12a/	.	12a/	.	.	.	.	.	.	.	.	.	.
.	.	.	12g/J	.	12g/J	.	.	.	.	.	.	.	.	.	.
4D/	5 #	.	12a/L	.	12a/L	.	.	.	.	.	.	.	.	.	.
.	.	.	12g/	.	12g/	.	.	.	.	.	.	.	.	.	.
.	.	.	12f#X/J	.	12f#X/J	.	.	.	.	.	.	.	.	.	.
=8	=8	=8	=8	=8	=8	=8	=8	=8	=8	=8	=8	=8	=8	=8	=8
4G\	.	.	4.g/	.	4.g/	.	2.ryy	2.ryy	2.ryy	2.ryy	.	.	2.ryy	2.ryy	2.ryy
4G\	.	.	.	.	.	.	.	.	.	.	.	.	.	.	.
.	.	.	16a/LL	.	16a/LL	.	.	.	.	.	.	.	.	.	.
.	.	.	16b/JJ	.	16b/JJ	.	.	.	.	.	.	.	.	.	.
!	!	!	!	!	!LO:LB:g=original	!	!	!	!	!	!	!	!	!	!
4F\	5	.	16cc\LL	.	16cc\LL	.	.	.	.	.	.	.	.	.	.
.	.	.	16b\	.	16dd\	.	.	.	.	.	.	.	.	.	.
.	.	.	16cc\	.	16ee\	.	.	.	.	.	.	.	.	.	.
.	.	.	16dd\JJ	.	16ffn\JJ	.	.	.	.	.	.	.	.	.	.
!	!	!	!LO:LB:g=original	!	!	!	!	!	!	!	!	!	!	!	!
=9	=9	=9	=9-	=9	=9	=9	=9	=9	=9	=9	=9	=9	=9	=9	=9
4E\	6	.	8ee\L	.	8gg\L	.	2.ryy	2.ryy	2.ryy	2.ryy	0.r	.	2.ryy	2.ryy	2.ryy
.	.	.	8ee\	.	8gg\	.	.	.	.	.	.	.	.	.	.
4E\	.	.	8ee\	.	8gg\	.	.	.	.	.	.	.	.	.	.
.	.	.	8ee\	.	8gg\	.	.	.	.	.	.	.	.	.	.
4D/	4 2	.	8ee\	.	8gg\	.	.	.	.	.	.	.	.	.	.
.	.	.	8ee\J	.	8gg\J	.	.	.	.	.	.	.	.	.	.
=10	=10	=10	=10	=10	=10	=10	=10	=10	=10	=10	=10	=10	=10	=10	=10
4C#X/	5	.	8ee\L	.	8gg\L	.	2.ryy	2.ryy	2.ryy	2.ryy	.	.	2.ryy	2.ryy	2.ryy
.	.	.	8gg\J	.	8bb-X\J	.	.	.	.	.	.	.	.	.	.
*	*	*	*tuplet	*	*	*	*	*	*	*	*	*	*	*	*
4C#/	.	.	12aa\L	.	12aa\L	.	.	.	.	.	.	.	.	.	.
.	.	.	12gg\	.	12gg\	.	.	.	.	.	.	.	.	.	.
.	.	.	12ff\J	.	12ff\J	.	.	.	.	.	.	.	.	.	.
4AA/	#	.	12ee\L	.	12ee\L	.	.	.	.	.	.	.	.	.	.
.	.	.	12dd\	.	12dd\	.	.	.	.	.	.	.	.	.	.
.	.	.	12cc#X\J	.	12cc#X\J	.	.	.	.	.	.	.	.	.	.
=11	=11	=11	=11	=11	=11	=11	=11	=11	=11	=11	=11	=11	=11	=11	=11
4D\	.	.	4.dd\	.	4.dd\	.	2.ryy	2.ryy	2.ryy	2.ryy	.	.	2.ryy	2.ryy	2.ryy
4F\	.	.	.	.	.	.	.	.	.	.	.	.	.	.	.
.	.	.	16g/LL	.	16g/LL	.	.	.	.	.	.	.	.	.	.
.	.	.	16f/JJ	.	16a/JJ	.	.	.	.	.	.	.	.	.	.
4E\	5	.	16g/LL	.	16b\LL	.	.	.	.	.	.	.	.	.	.
.	.	.	16a/	.	16ccn\	.	.	.	.	.	.	.	.	.	.
.	.	.	16b/	.	16dd\	.	.	.	.	.	.	.	.	.	.
.	.	.	16ccn/JJ	.	16ee\JJ	.	.	.	.	.	.	.	.	.	.
!LO:LB:g=original	!	!	!	!	!	!	!	!	!	!	!	!	!	!	!
=12	=12	=12	=12	=12	=12	=12	=12	=12	=12	=12	=12	=12	=12	=12	=12
4D/	.	.	8dd\L	.	8ff\L	.	2.ryy	2.ryy	2.ryy	2.ryy	.	.	2.ryy	2.ryy	2.ryy
.	.	.	8dd\	.	8ff\	.	.	.	.	.	.	.	.	.	.
4D/	.	.	8dd\	.	8ff\	.	.	.	.	.	.	.	.	.	.
.	.	.	8dd\	.	8ff\	.	.	.	.	.	.	.	.	.	.
4Cn/	4 2	.	8dd\	.	8ff\	.	.	.	.	.	.	.	.	.	.
.	.	.	8dd\J	.	8ff\J	.	.	.	.	.	.	.	.	.	.
=13	=13	=13	=13	=13	=13	=13	=13	=13	=13	=13	=13	=13	=13	=13	=13
4BB/	5	.	8dd\L	.	8ff\L	.	2.ryy	2.ryy	2.ryy	2.ryy	0.r	.	2.ryy	2.ryy	2.ryy
.	.	.	8ff\J	.	8aa\J	.	.	.	.	.	.	.	.	.	.
4BB/	6	.	12gg\L	.	12gg\L	.	.	.	.	.	.	.	.	.	.
.	.	.	12ff\	.	12ff\	.	.	.	.	.	.	.	.	.	.
.	.	.	12ee\J	.	12ee\J	.	.	.	.	.	.	.	.	.	.
4GG/	.	.	12dd\L	.	12dd\L	.	.	.	.	.	.	.	.	.	.
.	.	.	12cc\	.	12cc\	.	.	.	.	.	.	.	.	.	.
.	.	.	12b\J	.	12b\J	.	.	.	.	.	.	.	.	.	.
=14	=14	=14	=14	=14	=14	=14	=14	=14	=14	=14	=14	=14	=14	=14	=14
4C/	.	.	4.cc\	.	4.cc\	.	2.ryy	2.ryy	2.ryy	2.ryy	.	.	2.ryy	2.ryy	2.ryy
4E\	6	.	.	.	.	.	.	.	.	.	.	.	.	.	.
*	*	*	*Xtuplet	*	*	*	*	*	*	*	*	*	*	*	*
.	.	.	24g\LL	.	24g\LL	.	.	.	.	.	.	.	.	.	.
.	.	.	24cc\	.	24cc\	.	.	.	.	.	.	.	.	.	.
.	.	.	24ee\JJ	.	24ee\JJ	.	.	.	.	.	.	.	.	.	.
!	!	!	!LO:TX:t=P:problem=mixed beam	!	!LO:TX:t=P:problem=mixed beam	!	!	!	!	!	!	!	!	!	!
4C/	.	.	8gg\L	.	8gg\L	.	.	.	.	.	.	.	.	.	.
.	.	.	8g/J	.	8g/J	.	.	.	.	.	.	.	.	.	.
=15	=15	=15	=15	=15	=15	=15	=15	=15	=15	=15	=15	=15	=15	=15	=15
4F\	.	.	4.a/	.	4.a\	.	2.ryy	2.ryy	2.ryy	2.ryy	.	.	2.ryy	2.ryy	2.ryy
4D\	.	.	.	.	.	.	.	.	.	.	.	.	.	.	.
.	.	.	24a\LL	.	24a\LL	.	.	.	.	.	.	.	.	.	.
.	.	.	24dd\	.	24dd\	.	.	.	.	.	.	.	.	.	.
.	.	.	24ff\JJ	.	24ff\JJ	.	.	.	.	.	.	.	.	.	.
!	!	!	!LO:TX:t=P:problem=mixed beam	!	!LO:TX:t=P:problem=mixed beam	!	!	!	!	!	!	!	!	!	!
4F\	.	.	8aa\L	.	8aa\L	.	.	.	.	.	.	.	.	.	.
.	.	.	8a/J	.	8a/J	.	.	.	.	.	.	.	.	.	.
!	!	!	!	!	!LO:LB:g=original	!	!	!	!	!	!	!	!	!	!
=16	=16	=16	=16	=16	=16	=16	=16	=16	=16	=16	=16	=16	=16	=16	=16
4G\	.	.	4.b/	.	4.b/	.	2.ryy	2.ryy	2.ryy	2.ryy	.	.	2.ryy	2.ryy	2.ryy
4d\	6	.	.	.	.	.	.	.	.	.	.	.	.	.	.
.	.	.	16g/LL	.	16g/LL	.	.	.	.	.	.	.	.	.	.
.	.	.	16a/JJ	.	16a/JJ	.	.	.	.	.	.	.	.	.	.
4c\	.	.	16b\LL	.	16b\LL	.	.	.	.	.	.	.	.	.	.
.	.	.	16cc\	.	16cc\	.	.	.	.	.	.	.	.	.	.
.	.	.	16dd\	.	16dd\	.	.	.	.	.	.	.	.	.	.
.	.	.	16ee\JJ	.	16ee\JJ	.	.	.	.	.	.	.	.	.	.
!	!	!	!LO:LB:g=original	!	!	!	!	!	!	!	!	!	!	!	!
=17	=17	=17	=17	=17	=17	=17	=17	=17	=17	=17	=17	=17	=17	=17	=17
4B\	5	.	8dd\L	.	8ff\L	.	2.ryy	2.ryy	2.ryy	2.ryy	0.r	.	2.ryy	2.ryy	2.ryy
.	.	.	8dd\	.	8ff\	.	.	.	.	.	.	.	.	.	.
4B\	.	.	8dd\	.	8ff\	.	.	.	.	.	.	.	.	.	.
.	.	.	8dd\	.	8ff\	.	.	.	.	.	.	.	.	.	.
4A\	6	.	8dd\	.	8ff\	.	.	.	.	.	.	.	.	.	.
.	.	.	8dd\J	.	8ff\J	.	.	.	.	.	.	.	.	.	.
=18	=18	=18	=18	=18	=18	=18	=18	=18	=18	=18	=18	=18	=18	=18	=18
*	*	*	*tuplet	*	*	*	*	*	*	*	*	*	*	*	*
4G\	.	.	12dd\L	.	12ff\L	.	2.ryy	2.ryy	2.ryy	2.ryy	.	.	2.ryy	2.ryy	2.ryy
.	.	.	12ee\	.	12gg\	.	.	.	.	.	.	.	.	.	.
.	.	.	12ff\J	.	12aa\J	.	.	.	.	.	.	.	.	.	.
*	*	*	*	*	*Xtuplet	*	*	*	*	*	*	*	*	*	*
4A\	.	.	12ff\L	.	12aa\L	.	.	.	.	.	.	.	.	.	.
.	.	.	12ee\	.	12gg\	.	.	.	.	.	.	.	.	.	.
.	.	.	12dd\J	.	12ff\J	.	.	.	.	.	.	.	.	.	.
*	*	*	*	*	*tuplet	*	*	*	*	*	*	*	*	*	*
4B\	.	.	12dd\L	.	12ff\L	.	.	.	.	.	.	.	.	.	.
.	.	.	12ee\	.	12ee\	.	.	.	.	.	.	.	.	.	.
.	.	.	12ff\J	.	12dd\J	.	.	.	.	.	.	.	.	.	.
=19	=19	=19	=19	=19	=19	=19	=19	=19	=19	=19	=19	=19	=19	=19	=19
4c\	.	.	8ee\L	.	8ee\L	.	2.ryy	2.ryy	2.ryy	2.ryy	.	.	2.ryy	2.ryy	2.ryy
.	.	.	8cc\J	.	8gg\J	.	.	.	.	.	.	.	.	.	.
4A\	7	.	12ee\L	.	12gg\L	.	.	.	.	.	.	.	.	.	.
.	.	.	12ff\	.	12ff\	.	.	.	.	.	.	.	.	.	.
.	.	.	12gg\J	.	12ee\J	.	.	.	.	.	.	.	.	.	.
4E\	6	.	12gg\L	.	12ee\L	.	.	.	.	.	.	.	.	.	.
.	.	.	12ff\	.	12dd\	.	.	.	.	.	.	.	.	.	.
.	.	.	12ee\J	.	12cc\J	.	.	.	.	.	.	.	.	.	.
=20	=20	=20	=20	=20	=20	=20	=20	=20	=20	=20	=20	=20	=20	=20	=20
4F\	.	.	4ff\	.	8a\L	.	2.ryy	2.ryy	2.ryy	2.ryy	.	.	2.ryy	2.ryy	2.ryy
.	.	.	.	.	8dd\J	.	.	.	.	.	.	.	.	.	.
.	.	.	.	.	8qqcc/	.	.	.	.	.	.	.	.	.	.
4G\	6 4	.	4ee\	.	2b\	.	.	.	.	.	.	.	.	.	.
4GG/	5 3	.	4dd\	.	.	.	.	.	.	.	.	.	.	.	.
=21	=21	=21	=21	=21	=21	=21	=21	=21	=21	=21	=21	=21	=21	=21	=21
4C/	.	.	12cc\L	.	12ee\L	.	2.ryy	2.ryy	2.ryy	2.ryy	1.r	.	2.ryy	2.ryy	2.ryy
.	.	.	12ff\	.	12ff\	.	.	.	.	.	.	.	.	.	.
.	.	.	12gg\J	.	12gg\J	.	.	.	.	.	.	.	.	.	.
4D/	.	.	12aa\L	.	12aa\L	.	.	.	.	.	.	.	.	.	.
.	.	.	12gg\	.	12gg\	.	.	.	.	.	.	.	.	.	.
.	.	.	12ff\J	.	12ff\J	.	.	.	.	.	.	.	.	.	.
*	*	*	*Xtuplet	*	*Xtuplet	*	*	*	*	*	*	*	*	*	*
4E\	.	.	12ee\L	.	12ee\L	.	.	.	.	.	.	.	.	.	.
.	.	.	12dd\	.	12dd\	.	.	.	.	.	.	.	.	.	.
.	.	.	12cc\J	.	12cc\J	.	.	.	.	.	.	.	.	.	.
=22	=22	=22	=22	=22	=22	=22	=22	=22	=22	=22	=22	=22	=22	=22	=22
4F\	.	.	4a/	.	8a\L	.	2.ryy	2.ryy	2.ryy	2.ryy	.	.	2.ryy	2.ryy	2.ryy
.	.	.	.	.	8dd\J	.	.	.	.	.	.	.	.	.	.
.	.	.	.	.	8qqcc/	.	.	.	.	.	.	.	.	.	.
4G\	7	.	4g/	.	2b\	.	.	.	.	.	.	.	.	.	.
4GG/	.	.	4f/	.	.	.	.	.	.	.	.	.	.	.	.
=23	=23	=23	=23	=23	=23	=23	=23	=23	=23	=23	=23	=23	=23	=23	=23
4C/	.	.	2e/	.	4cc\	.	2.ryy	2.ryy	2.ryy	2.ryy	2.r	.	2.ryy	2.ryy	2.ryy
4E\	.	.	.	.	4c/	.	.	.	.	.	.	.	.	.	.
4D/	.	.	4r	.	4r	.	.	.	.	.	.	.	.	.	.
!LO:LB:g=original	!	!	!	!	!	!	!	!	!	!	!	!	!	!	!
=24	=24	=24	=24	=24	=24	=24	=24	=24	=24	=24	=24	=24	=24	=24	=24
!	!	!LO:DY:a:rj:t=p.	!	!LO:DY:a:t=p.	!	!LO:DY:a:t=pia&colon;	!	!	!	!	!LO:TX:a:rj:i:t=Solo	!	!	!	!
4c\	.	p	4ee\	p	4cc\	p	2.ryy	2.ryy	2.ryy	2.ryy	4cc\	Te-	2.ryy	2.ryy	2.ryy
4c\	.	.	4ee\	.	4cc\	.	.	.	.	.	4cc,\	-cum	.	.	.
4B\	6	.	4dd\	.	16gg\LL	.	.	.	.	.	4cc\	prin-	.	.	.
.	.	.	.	.	16ff\	.	.	.	.	.	.	.	.	.	.
.	.	.	.	.	16ee\	.	.	.	.	.	.	.	.	.	.
.	.	.	.	.	16dd\JJ	.	.	.	.	.	.	.	.	.	.
!	!	!	!	!	!LO:LB:g=original	!	!	!	!	!	!	!	!	!	!
=25	=25	=25	=25	=25	=25	=25	=25	=25	=25	=25	=25	=25	=25	=25	=25
4A\	.	.	4cc\	.	4cc\	.	2.ryy	2.ryy	2.ryy	2.ryy	8cc\	-ci-	2.ryy	2.ryy	2.ryy
.	.	.	.	.	.	.	.	.	.	.	8cc\	-pi-	.	.	.
4A\	.	.	4cc\	.	4cc\	.	.	.	.	.	4cc,\	-um	.	.	.
4E\	6	.	4cc\	.	16gg\LL	.	.	.	.	.	4cc\	in	.	.	.
.	.	.	.	.	16ee\	.	.	.	.	.	.	.	.	.	.
.	.	.	.	.	16dd\	.	.	.	.	.	.	.	.	.	.
.	.	.	.	.	16cc\JJ	.	.	.	.	.	.	.	.	.	.
=26	=26	=26	=26	=26	=26	=26	=26	=26	=26	=26	=26	=26	=26	=26	=26
*	*	*	*	*	*tuplet	*	*	*	*	*	*	*	*	*	*
4F\	.	.	8cc\L	.	12dd\L	.	2.ryy	2.ryy	2.ryy	2.ryy	8dd\L	di-	2.ryy	2.ryy	2.ryy
.	.	.	.	.	12b\	.	.	.	.	.	.	.	.	.	.
.	.	.	8b\J	.	.	.	.	.	.	.	8b\J	.	.	.	.
.	.	.	.	.	12g\J	.	.	.	.	.	.	.	.	.	.
4G\	7	.	4dd\	.	12f/L	.	.	.	.	.	4g,/	-e	.	.	.
.	.	.	.	.	12e/	.	.	.	.	.	.	.	.	.	.
.	.	.	.	.	12f/J	.	.	.	.	.	.	.	.	.	.
!	!	!	!LO:SIC:v:t= custos dd	!	!	!	!	!	!	!	!	!	!	!	!
4GG/	.	.	4dd\	.	8G/L	.	.	.	.	.	4f/	vir-	.	.	.
.	.	.	.	.	8f/J	.	.	.	.	.	.	.	.	.	.
!	!	!	!LO:LB:g=original	!	!	!	!	!	!	!	!	!	!	!	!
=27	=27	=27	=27	=27	=27	=27	=27	=27	=27	=27	=27	=27	=27	=27	=27
4C/	5 4	.	4dd\	.	4f/	.	2.ryy	2.ryy	2.ryy	2.ryy	4f/	-tu-	2.ryy	2.ryy	2.ryy
4E\	x 6	.	4cc\	.	4e/	.	.	.	.	.	4e/	-tis	.	.	.
4G\	.	.	4r	.	4r	.	.	.	.	.	4r	.	.	.	.
=28	=28	=28	=28	=28	=28	=28	=28	=28	=28	=28	=28	=28	=28	=28	=28
4C/	.	.	4ee\	.	12cc\L	.	2.ryy	2.ryy	2.ryy	2.ryy	4ee\	vir-	2.ryy	2.ryy	2.ryy
.	.	.	.	.	12dd\	.	.	.	.	.	.	.	.	.	.
.	.	.	.	.	12ee\J	.	.	.	.	.	.	.	.	.	.
4c\	.	.	4ee\	.	12ee\L	.	.	.	.	.	4ee\	-tu-	.	.	.
.	.	.	.	.	12ff\	.	.	.	.	.	.	.	.	.	.
.	.	.	.	.	12gg\J	.	.	.	.	.	.	.	.	.	.
4c\	.	.	4ee\	.	12ee\L	.	.	.	.	.	4ee\	-tis	.	.	.
.	.	.	.	.	12dd\	.	.	.	.	.	.	.	.	.	.
.	.	.	.	.	12cc\J	.	.	.	.	.	.	.	.	.	.
=29	=29	=29	=29	=29	=29	=29	=29	=29	=29	=29	=29	=29	=29	=29	=29
4A\	6\	.	4dd\	.	12aa\L	.	2.ryy	2.ryy	2.ryy	2.ryy	8dd\L	tu-	2.ryy	2.ryy	2.ryy
.	.	.	.	.	12gg\	.	.	.	.	.	.	.	.	.	.
.	.	.	.	.	.	.	.	.	.	.	8cc\J	-ae	.	.	.
.	.	.	.	.	12ff#X\J	.	.	.	.	.	.	.	.	.	.
!	!	!	!	!	!	!	!	!	!	!	!LO:TX:t=P::problem=cauda półnuty po prawej&colon; global	!	!	!	!
.	.	.	.	.	8qqff#/	.	.	.	.	.	.	.	.	.	.
*	*	*	*	*	*	*	*	*	*	*	*2\right	*	*	*	*
4G\	.	.	4dd\	.	2gg\	.	.	.	.	.	2dd\	.	.	.	.
4B\	6	.	4dd\	.	.	.	.	.	.	.	.	.	.	.	.
=30	=30	=30	=30	=30	=30	=30	=30	=30	=30	=30	=30	=30	=30	=30	=30
!	!	!	!	!	!LO:TUP:b	!	!	!	!	!	!	!	!	!	!
4c\	.	.	4g/	.	12cc/L	.	2.ryy	2.ryy	2.ryy	2.ryy	(4cc\	tu-	2.ryy	2.ryy	2.ryy
.	.	.	.	.	12b/	.	.	.	.	.	.	.	.	.	.
.	.	.	.	.	12a/J	.	.	.	.	.	.	.	.	.	.
*	*	*	*	*	*Xtuplet	*	*	*	*	*	*	*	*	*	*
4d\	6 4	.	4g/	.	12b/L	.	.	.	.	.	4b\)	.	.	.	.
.	.	.	.	.	12a/	.	.	.	.	.	.	.	.	.	.
.	.	.	.	.	12g/J	.	.	.	.	.	.	.	.	.	.
4D/	5 #	.	4f#X/	.	12a/L	.	.	.	.	.	4a\	.	.	.	.
.	.	.	.	.	12g/	.	.	.	.	.	.	.	.	.	.
.	.	.	.	.	12f#X/J	.	.	.	.	.	.	.	.	.	.
=31	=31	=31	=31	=31	=31	=31	=31	=31	=31	=31	=31	=31	=31	=31	=31
4G\	.	.	4.g/	.	4.g/	.	2.ryy	2.ryy	2.ryy	2.ryy	4g/	-ae	2.ryy	2.ryy	2.ryy
4G\	.	.	.	.	.	.	.	.	.	.	4r	.	.	.	.
.	.	.	16a/LL	.	16a/LL	.	.	.	.	.	.	.	.	.	.
.	.	.	16b/JJ	.	16b/JJ	.	.	.	.	.	.	.	.	.	.
4F\	.	.	16cc\LL	.	16cc\LL	.	.	.	.	.	4r	.	.	.	.
.	.	.	16dd\	.	16dd\	.	.	.	.	.	.	.	.	.	.
.	.	.	16ee\	.	16ee\	.	.	.	.	.	.	.	.	.	.
.	.	.	16ffn\JJ	.	16ffn\JJ	.	.	.	.	.	.	.	.	.	.
!	!	!	!	!	!	!	!	!	!	!	!LO:LB:g=original	!	!	!	!
=32	=32	=32	=32	=32	=32	=32	=32	=32	=32	=32	=32	=32	=32	=32	=32
4E\	6	.	4ee\	.	4gg\	.	2.ryy	2.ryy	2.ryy	2.ryy	8gg\L	in	2.ryy	2.ryy	2.ryy
.	.	.	.	.	.	.	.	.	.	.	8ee\J	.	.	.	.
4E\	.	.	4ee\	.	4gg\	.	.	.	.	.	(4cc\	splen-	.	.	.
4E\	-5	.	4ee\	.	4gg\	.	.	.	.	.	4b-X\)	.	.	.	.
=33	=33	=33	=33	=33	=33	=33	=33	=33	=33	=33	=33	=33	=33	=33	=33
4F\	.	.	4cc\	.	4ff\	.	2.ryy	2.ryy	2.ryy	2.ryy	8a\	-do-	2.ryy	2.ryy	2.ryy
.	.	.	.	.	.	.	.	.	.	.	8cc\	-ri-	.	.	.
4F\	.	.	4cc\	.	4ff\	.	.	.	.	.	2ff\	-bus	.	.	.
4F\	.	.	4cc\	.	4ff\	.	.	.	.	.	.	.	.	.	.
!	!	!	!	!	!LO:LB:g=original	!	!	!	!	!	!	!	!	!	!
=34	=34	=34	=34	=34	=34	=34	=34	=34	=34	=34	=34	=34	=34	=34	=34
4D\	.	.	4ff\	.	4aa\	.	2.ryy	2.ryy	2.ryy	2.ryy	8ff\L	San-	2.ryy	2.ryy	2.ryy
.	.	.	.	.	.	.	.	.	.	.	8ee\J	.	.	.	.
4D\	.	.	4ff\	.	4aa\	.	.	.	.	.	4dd\	.	.	.	.
4D\	.	.	4ff\	.	4aa\	.	.	.	.	.	4cc\	.	.	.	.
=35	=35	=35	=35	=35	=35	=35	=35	=35	=35	=35	=35	=35	=35	=35	=35
8G\L	.	.	8dd\L	.	8gg\L	.	2.ryy	2.ryy	2.ryy	2.ryy	8bn\L	-cto-	2.ryy	2.ryy	2.ryy
8G\	.	.	8b\	.	8dd\	.	.	.	.	.	8a\J	.	.	.	.
8G\	.	.	8b\	.	8dd\	.	.	.	.	.	4g/	-rum	.	.	.
8G\	.	.	8b\	.	8dd\	.	.	.	.	.	.	.	.	.	.
8G\	.	.	8b\	.	8dd\	.	.	.	.	.	4r	.	.	.	.
8G\J	.	.	8b\J	.	8dd\J	.	.	.	.	.	.	.	.	.	.
!LO:LB:g=original	!	!	!	!	!	!	!	!	!	!	!	!	!	!	!
=36	=36	=36	=36	=36	=36	=36	=36	=36	=36	=36	=36	=36	=36	=36	=36
8c\L	.	.	8g/L	.	8ee\L	.	2.ryy	2.ryy	2.ryy	2.ryy	2.ee\	ex	2.ryy	2.ryy	2.ryy
8c\	.	.	8g/	.	8ee\	.	.	.	.	.	.	.	.	.	.
8c\	.	.	8g/	.	8ee\	.	.	.	.	.	.	.	.	.	.
8c\	.	.	8g/	.	8ee\	.	.	.	.	.	.	.	.	.	.
8c\	.	.	8g/	.	8ee\	.	.	.	.	.	.	.	.	.	.
8c\J	.	.	8g/J	.	8ee\J	.	.	.	.	.	.	.	.	.	.
=37	=37	=37	=37	=37	=37	=37	=37	=37	=37	=37	=37	=37	=37	=37	=37
8d\L	.	.	8g/L	.	8ff\L	.	2.ryy	2.ryy	2.ryy	2.ryy	2b\	u-	2.ryy	2.ryy	2.ryy
8d\	.	.	8g/	.	8ff\	.	.	.	.	.	.	.	.	.	.
8d\	.	.	8g/	.	8ff\	.	.	.	.	.	.	.	.	.	.
8d\	.	.	8g/	.	8ff\	.	.	.	.	.	.	.	.	.	.
8d\	.	.	8g/	.	8ff\	.	.	.	.	.	4b\	-te-	.	.	.
8d\J	.	.	8g/J	.	8ff\J	.	.	.	.	.	.	.	.	.	.
=38	=38	=38	=38	=38	=38	=38	=38	=38	=38	=38	=38	=38	=38	=38	=38
4e\	6	.	4cc\	.	4ee\	.	2.ryy	2.ryy	2.ryy	2.ryy	4cc,\	-ro	2.ryy	2.ryy	2.ryy
4B\	.	.	4g/	.	4dd\	.	.	.	.	.	4dd\	an-	.	.	.
4c\	.	.	4g/	.	4ee\	.	.	.	.	.	4ee\	-te	.	.	.
!	!	!	!LO:LB:g=original	!	!	!	!	!	!	!	!	!	!	!	!
=39	=39	=39	=39	=39	=39	=39	=39	=39	=39	=39	=39	=39	=39	=39	=39
4d\	.	.	4dd\	.	4ff\	.	2.ryy	2.ryy	2.ryy	2.ryy	4ff\	an-	2.ryy	2.ryy	2.ryy
4A\	.	.	4cc\	.	4ee\	.	.	.	.	.	4ee\	-te	.	.	.
4B\	.	.	4b\	.	4dd\	.	.	.	.	.	4dd\	lu-	.	.	.
=40	=40	=40	=40	=40	=40	=40	=40	=40	=40	=40	=40	=40	=40	=40	=40
4c\	.	.	8cc\L	.	8ee\L	.	2.ryy	2.ryy	2.ryy	2.ryy	4ee\	-ci-	2.ryy	2.ryy	2.ryy
.	.	.	8ee\J	.	8gg\	.	.	.	.	.	.	.	.	.	.
4E\	.	.	8ff\L	.	8ff\	.	.	.	.	.	4dd\	-fe-	.	.	.
.	.	.	8ee\	.	8ee\	.	.	.	.	.	.	.	.	.	.
4C/	.	.	8dd\	.	8dd\	.	.	.	.	.	4cc\	-rum	.	.	.
.	.	.	8cc\J	.	8cc\J	.	.	.	.	.	.	.	.	.	.
=41	=41	=41	=41	=41	=41	=41	=41	=41	=41	=41	=41	=41	=41	=41	=41
4F\	.	.	4a/	.	8dd\L	.	2.ryy	2.ryy	2.ryy	2.ryy	4dd\	ge-	2.ryy	2.ryy	2.ryy
.	.	.	.	.	8ff\	.	.	.	.	.	.	.	.	.	.
4G\	4	.	4g/	.	8ee\	.	.	.	.	.	4cc\	-nu-	.	.	.
.	.	.	.	.	8dd\	.	.	.	.	.	.	.	.	.	.
4GG/	3	.	4f/	.	8cc\	.	.	.	.	.	4b\	-i	.	.	.
.	.	.	.	.	8b\J	.	.	.	.	.	.	.	.	.	.
=42	=42	=42	=42	=42	=42	=42	=42	=42	=42	=42	=42	=42	=42	=42	=42
!	!	!	!LO:TX:t=P:problem=mixed beam	!	!	!	!	!	!	!	!	!	!	!	!
4C/	.	.	8e/L	.	8cc\L	.	2.ryy	2.ryy	2.ryy	2.ryy	4cc\	te	2.ryy	2.ryy	2.ryy
.	.	.	8ee\J	.	8gg\J	.	.	.	.	.	.	.	.	.	.
4E\	.	.	8ee\L	.	8gg\L	.	.	.	.	.	4r	.	.	.	.
.	.	.	16dd\L	.	16ff\L	.	.	.	.	.	.	.	.	.	.
.	.	.	16cc\JJ	.	16ee\JJ	.	.	.	.	.	.	.	.	.	.
4F\	.	.	8b/L	.	8dd\L	.	.	.	.	.	4r	.	.	.	.
.	.	.	8a/J	.	8cc\J	.	.	.	.	.	.	.	.	.	.
!	!	!	!	!	!	!	!	!	!	!	!LO:LB:g=original	!	!	!	!
=43	=43	=43	=43	=43	=43	=43	=43	=43	=43	=43	=43	=43	=43	=43	=43
!	!	!	!LO:TX:t=P:problem=mixed beam	!	!	!	!	!	!	!	!	!	!	!	!
4G\	.	.	8g/L	.	8b\L	.	2.ryy	2.ryy	2.ryy	2.ryy	2.r	.	2.ryy	2.ryy	2.ryy
.	.	.	8ee\J	.	8gg\J	.	.	.	.	.	.	.	.	.	.
4E\	.	.	8ee\L	.	8gg\L	.	.	.	.	.	.	.	.	.	.
.	.	.	16dd\L	.	16ff\L	.	.	.	.	.	.	.	.	.	.
.	.	.	16cc\JJ	.	16ee\JJ	.	.	.	.	.	.	.	.	.	.
4F\	6 5	.	8g/L	.	8dd\L	.	.	.	.	.	.	.	.	.	.
.	.	.	8a/J	.	8cc\J	.	.	.	.	.	.	.	.	.	.
!	!	!	!	!	!LO:LB:g=original	!	!	!	!	!	!	!	!	!	!
=44	=44	=44	=44	=44	=44	=44	=44	=44	=44	=44	=44	=44	=44	=44	=44
!	!	!	!	!	!	!	!	!	!	!	!LO:TX:a:t=1	!	!	!	!
4G\	.	.	4b/	.	4g/	.	2.ryy	2.ryy	2.ryy	2.ryy	4r	.	2.ryy	2.ryy	2.ryy
4B\	.	.	4b/	.	4dd\	.	.	.	.	.	4dd\	an-	.	.	.
4G\	.	.	4b/	.	4dd\	.	.	.	.	.	4dd\	-te	.	.	.
=45	=45	=45	=45	=45	=45	=45	=45	=45	=45	=45	=45	=45	=45	=45	=45
4c\	.	.	4g/	.	4ee\	.	2.ryy	2.ryy	2.ryy	2.ryy	4ee\	an-	2.ryy	2.ryy	2.ryy
4c\	.	.	4g/	.	4ee\	.	.	.	.	.	4ee,\	-te	.	.	.
4c\	.	.	4g/	.	4ee\	.	.	.	.	.	4ee\	lu-	.	.	.
=46	=46	=46	=46	=46	=46	=46	=46	=46	=46	=46	=46	=46	=46	=46	=46
4c\	.	.	4g/	.	4.ee\	.	2.ryy	2.ryy	2.ryy	2.ryy	4.ee\	-ci-	2.ryy	2.ryy	2.ryy
4B\	.	.	4g/	.	.	.	.	.	.	.	.	.	.	.	.
.	.	.	.	.	8dd\	.	.	.	.	.	8dd\	-fe-	.	.	.
!LO:SIC:v:t= custos A	!	!	!	!	!	!	!	!	!	!	!	!	!	!	!
4G\	.	.	4g/	.	4dd\	.	.	.	.	.	4dd\	-rum	.	.	.
!LO:LB:g=original	!	!	!	!	!	!	!	!	!	!	!	!	!	!	!
=47	=47	=47	=47	=47	=47	=47	=47	=47	=47	=47	=47	=47	=47	=47	=47
4A\	.	.	8a/L	.	8cc\L	.	2.ryy	2.ryy	2.ryy	2.ryy	8cc\L	ge-	2.ryy	2.ryy	2.ryy
.	.	.	8g/	.	8b\	.	.	.	.	.	8b\	.	.	.	.
4F\	.	.	8a/	.	8cc\	.	.	.	.	.	8cc\	.	.	.	.
.	.	.	8cc/	.	8ee\	.	.	.	.	.	8ee\	.	.	.	.
4D/	.	.	8b/	.	8dd\	.	.	.	.	.	8dd\	.	.	.	.
.	.	.	8a/J	.	8cc\J	.	.	.	.	.	8cc\J	.	.	.	.
=48	=48	=48	=48	=48	=48	=48	=48	=48	=48	=48	=48	=48	=48	=48	=48
*	*	*	*	*	*tuplet	*	*	*	*	*	*	*	*	*	*
4G\	.	.	4g/	.	12b\L	.	2.ryy	2.ryy	2.ryy	2.ryy	12b\L	.	2.ryy	2.ryy	2.ryy
.	.	.	.	.	12cc\	.	.	.	.	.	12cc\	.	.	.	.
.	.	.	.	.	12dd\J	.	.	.	.	.	12dd\J	.	.	.	.
4A\	6\	.	4f#X/	.	2cc\	.	.	.	.	.	2cc\	.	.	.	.
4D/	7	.	4a/	.	.	.	.	.	.	.	.	.	.	.	.
!	!	!	!LO:LB:g=original	!	!	!	!	!	!	!	!	!	!	!	!
=49	=49	=49	=49	=49	=49	=49	=49	=49	=49	=49	=49	=49	=49	=49	=49
4G\	.	.	4g/	.	12b\L	.	2.ryy	2.ryy	2.ryy	2.ryy	12b\L	.	2.ryy	2.ryy	2.ryy
.	.	.	.	.	12cc\	.	.	.	.	.	12cc\	.	.	.	.
.	.	.	.	.	12dd\J	.	.	.	.	.	12dd\J	.	.	.	.
4A\	.	.	4f#X/	.	2cc\	.	.	.	.	.	2cc\	.	.	.	.
4D/	7 #	.	4a/	.	.	.	.	.	.	.	.	.	.	.	.
=50	=50	=50	=50	=50	=50	=50	=50	=50	=50	=50	=50	=50	=50	=50	=50
*	*	*	*	*	*Xtuplet	*	*	*	*	*	*	*	*	*	*
4G\	.	.	4g/	.	12b/L	.	2.ryy	2.ryy	2.ryy	2.ryy	12b\L	.	2.ryy	2.ryy	2.ryy
.	.	.	.	.	12a/	.	.	.	.	.	12a\	.	.	.	.
.	.	.	.	.	12g/J	.	.	.	.	.	12g\J	.	.	.	.
4C/	6	.	4d/	.	4.f#X/	.	.	.	.	.	4.f#X/	-nu-	.	.	.
4D/	7 #	.	4c/	.	.	.	.	.	.	.	.	.	.	.	.
.	.	.	.	.	8g/	.	.	.	.	.	8g/	-i	.	.	.
=51	=51	=51	=51	=51	=51	=51	=51	=51	=51	=51	=51	=51	=51	=51	=51
!	!	!LO:DY:a:t=fort.	!	!LO:DY:t=f.	!	!LO:DY:a:t=fort.	!	!	!	!	!	!	!	!	!
4GG/	.	f	4g/	f	4g/	f	2.ryy	2.ryy	2.ryy	2.ryy	4g/	te	2.ryy	2.ryy	2.ryy
4G\	.	.	4g/	.	4g/	.	.	.	.	.	4r	.	.	.	.
4F#X\	.	.	16dd\LL	.	16dd\LL	.	.	.	.	.	4r	.	.	.	.
.	.	.	16cc\	.	16cc\	.	.	.	.	.	.	.	.	.	.
.	.	.	16b\	.	16b\	.	.	.	.	.	.	.	.	.	.
.	.	.	16a\JJ	.	16a\JJ	.	.	.	.	.	.	.	.	.	.
=52	=52	=52	=52	=52	=52	=52	=52	=52	=52	=52	=52	=52	=52	=52	=52
!	!	!	!	!	!	!	!	!	!	!	!LO:TX:a:t=7.	!	!	!	!
4E\	.	.	4g/	.	4g/	.	2.ryy	2.ryy	2.ryy	2.ryy	0.r	.	2.ryy	2.ryy	2.ryy
4E\	.	.	4g/	.	4g/	.	.	.	.	.	.	.	.	.	.
4BB/	6	.	16dd\LL	.	16dd\LL	.	.	.	.	.	.	.	.	.	.
.	.	.	16b\	.	16b\	.	.	.	.	.	.	.	.	.	.
.	.	.	16a\	.	16a\	.	.	.	.	.	.	.	.	.	.
.	.	.	16g\JJ	.	16g\JJ	.	.	.	.	.	.	.	.	.	.
=53	=53	=53	=53	=53	=53	=53	=53	=53	=53	=53	=53	=53	=53	=53	=53
*	*	*	*tuplet	*	*tuplet	*	*	*	*	*	*	*	*	*	*
4C/	.	.	12cc\L	.	12cc\L	.	2.ryy	2.ryy	2.ryy	2.ryy	.	.	2.ryy	2.ryy	2.ryy
.	.	.	12a\	.	12a\	.	.	.	.	.	.	.	.	.	.
.	.	.	12f#X\J	.	12f#X\J	.	.	.	.	.	.	.	.	.	.
4D\	7 #	.	12d/L	.	12d/L	.	.	.	.	.	.	.	.	.	.
.	.	.	12c/	.	12c/	.	.	.	.	.	.	.	.	.	.
.	.	.	12d/J	.	12d/J	.	.	.	.	.	.	.	.	.	.
4DD/	.	.	12cc\L	.	12cc\L	.	.	.	.	.	.	.	.	.	.
.	.	.	12b\	.	12b\	.	.	.	.	.	.	.	.	.	.
.	.	.	12cc\J	.	12cc\J	.	.	.	.	.	.	.	.	.	.
!	!	!	!	!	!LO:LB:g=original	!	!	!	!	!	!	!	!	!	!
=54	=54	=54	=54	=54	=54	=54	=54	=54	=54	=54	=54	=54	=54	=54	=54
4GG/	.	.	12b\L	.	12b\L	.	2.ryy	2.ryy	2.ryy	2.ryy	.	.	2.ryy	2.ryy	2.ryy
.	.	.	12cc\	.	12cc\	.	.	.	.	.	.	.	.	.	.
.	.	.	12dd\J	.	12dd\J	.	.	.	.	.	.	.	.	.	.
4AA/	.	.	12cc\L	.	12ee\L	.	.	.	.	.	.	.	.	.	.
.	.	.	12dd\	.	12dd\	.	.	.	.	.	.	.	.	.	.
.	.	.	12ee\J	.	12cc\J	.	.	.	.	.	.	.	.	.	.
!	!	!	!	!	!LO:TUP:b	!	!	!	!	!	!	!	!	!	!
4BB/	.	.	12dd\L	.	12b/L	.	.	.	.	.	.	.	.	.	.
.	.	.	12cc\	.	12a/	.	.	.	.	.	.	.	.	.	.
.	.	.	12b\J	.	12g/J	.	.	.	.	.	.	.	.	.	.
=55	=55	=55	=55	=55	=55	=55	=55	=55	=55	=55	=55	=55	=55	=55	=55
4C/	.	.	4cc\	.	8e/L	.	2.ryy	2.ryy	2.ryy	2.ryy	.	.	2.ryy	2.ryy	2.ryy
.	.	.	.	.	8a/J	.	.	.	.	.	.	.	.	.	.
.	.	.	.	.	8qqg/	.	.	.	.	.	.	.	.	.	.
4D/	6 4	.	4b\	.	2f#X/	.	.	.	.	.	.	.	.	.	.
4DD/	5 #	.	4a/	.	.	.	.	.	.	.	.	.	.	.	.
=56	=56	=56	=56	=56	=56	=56	=56	=56	=56	=56	=56	=56	=56	=56	=56
4E\	.	.	12b\L	.	12b\L	.	2.ryy	2.ryy	2.ryy	2.ryy	1.r	.	2.ryy	2.ryy	2.ryy
.	.	.	12cc\	.	12cc\	.	.	.	.	.	.	.	.	.	.
.	.	.	12dd\J	.	12dd\J	.	.	.	.	.	.	.	.	.	.
4C/	.	.	12cc\L	.	12ee\L	.	.	.	.	.	.	.	.	.	.
.	.	.	12dd\	.	12ff\	.	.	.	.	.	.	.	.	.	.
.	.	.	12ee\J	.	12gg\J	.	.	.	.	.	.	.	.	.	.
!	!	!	!	!	!LO:TUP:b	!	!	!	!	!	!	!	!	!	!
4BB/	6	.	12dd\L	.	12b/L	.	.	.	.	.	.	.	.	.	.
.	.	.	12cc\	.	12a/	.	.	.	.	.	.	.	.	.	.
.	.	.	12b\J	.	12g/J	.	.	.	.	.	.	.	.	.	.
!	!	!	!LO:LB:g=original	!	!	!	!	!	!	!	!	!	!	!	!
=57	=57	=57	=57	=57	=57	=57	=57	=57	=57	=57	=57	=57	=57	=57	=57
4C/	.	.	8e/L	.	8e/L	.	2.ryy	2.ryy	2.ryy	2.ryy	.	.	2.ryy	2.ryy	2.ryy
.	.	.	8a/J	.	8a/J	.	.	.	.	.	.	.	.	.	.
.	.	.	8qqg/	.	8qqg/	.	.	.	.	.	.	.	.	.	.
4D/	.	.	2f#X/	.	2f#X/	.	.	.	.	.	.	.	.	.	.
4DD/	#	.	.	.	.	.	.	.	.	.	.	.	.	.	.
=58	=58	=58	=58	=58	=58	=58	=58	=58	=58	=58	=58	=58	=58	=58	=58
!	!	!	!	!	!	!	!	!	!	!	!LO:SIC:v:t=custos dd	!	!	!	!
4GG/	.	.	4g/	.	4g/	.	2.ryy	2.ryy	2.ryy	2.ryy	2.r	.	2.ryy	2.ryy	2.ryy
4G\	3	.	4G/	.	4G/	.	.	.	.	.	.	.	.	.	.
4A\	3	.	4r	.	4r	.	.	.	.	.	.	.	.	.	.
!LO:LB:g=original	!	!	!	!	!	!	!	!	!	!	!LO:LB:g=original	!	!	!	!
=59	=59	=59	=59	=59	=59	=59	=59	=59	=59	=59	=59	=59	=59	=59	=59
!	!	!	!	!LO:DY:a:t=p.	!	!	!	!	!	!	!	!	!	!	!
4B\	.	.	8b\L	p	4ffn\	.	2.ryy	2.ryy	2.ryy	2.ryy	8dd\L	te-	2.ryy	2.ryy	2.ryy
.	.	.	8dd\J	.	.	.	.	.	.	.	8b\J	.	.	.	.
4B\	.	.	4d/	.	8dd\L	.	.	.	.	.	4g/	-cum	.	.	.
.	.	.	.	.	8b\J	.	.	.	.	.	.	.	.	.	.
4B\	-5	.	4d/	.	8g/L	.	.	.	.	.	4fn/	prin-	.	.	.
.	.	.	.	.	8f/J	.	.	.	.	.	.	.	.	.	.
=60	=60	=60	=60	=60	=60	=60	=60	=60	=60	=60	=60	=60	=60	=60	=60
4c\	.	.	4d/	.	8f/L	.	2.ryy	2.ryy	2.ryy	2.ryy	8f/	-ci-	2.ryy	2.ryy	2.ryy
.	.	.	.	.	8e/J	.	.	.	.	.	8e/	-pi-	.	.	.
4E\	.	.	4e/	.	4e/	.	.	.	.	.	4e/	-um	.	.	.
4E\	-5	.	4g/	.	4b-X/	.	.	.	.	.	4b-X\	in	.	.	.
=61	=61	=61	=61	=61	=61	=61	=61	=61	=61	=61	=61	=61	=61	=61	=61
4F\	-4	.	8g/L	.	8b/L	.	2.ryy	2.ryy	2.ryy	2.ryy	(8b\L	di-	2.ryy	2.ryy	2.ryy
.	3	.	8f/J	.	8a/J	.	.	.	.	.	8a\J)	.	.	.	.
4F\	.	.	4f/	.	4a/	.	.	.	.	.	4a,\	-e	.	.	.
4F\	.	.	4a/	.	4cc\	.	.	.	.	.	4cc\	vir-	.	.	.
=62	=62	=62	=62	=62	=62	=62	=62	=62	=62	=62	=62	=62	=62	=62	=62
4G\	4	.	8a/L	.	8cc\L	.	2.ryy	2.ryy	2.ryy	2.ryy	8cc\L	-tu-	2.ryy	2.ryy	2.ryy
.	1	.	8g/J	.	8bn\J	.	.	.	.	.	8an\J	.	.	.	.
!	!	!	!	!	!LO:LB:g=original	!	!	!	!	!	!	!	!	!	!
4G\	.	.	4g/	.	4b\	.	.	.	.	.	4b,\	-tis	.	.	.
4G\	.	.	4b/	.	4dd\	.	.	.	.	.	4dd\	vir-	.	.	.
=63	=63	=63	=63	=63	=63	=63	=63	=63	=63	=63	=63	=63	=63	=63	=63
4A\	4	.	8b/L	.	8dd\L	.	2.ryy	2.ryy	2.ryy	2.ryy	8dd\L	-tu-	2.ryy	2.ryy	2.ryy
.	3	.	8a/J	.	8cc\J	.	.	.	.	.	8cc\J	.	.	.	.
4A\	.	.	4a/	.	4cc\	.	.	.	.	.	4cc,\	-tis	.	.	.
4A\	.	.	4cc\	.	4ee\	.	.	.	.	.	[4ee\	tu-	.	.	.
=64	=64	=64	=64	=64	=64	=64	=64	=64	=64	=64	=64	=64	=64	=64	=64
4G\	6 4	.	8cc\L	.	8ee\L	.	2.ryy	2.ryy	2.ryy	2.ryy	8ee\L]	.	2.ryy	2.ryy	2.ryy
.	5 3	.	8b\J	.	8dd\J	.	.	.	.	.	8dd\J	.	.	.	.
4G\	3	.	4b\	.	4dd\	.	.	.	.	.	4dd\	-ae	.	.	.
4A\	3	.	4r	.	4r	.	.	.	.	.	4r	.	.	.	.
=65	=65	=65	=65	=65	=65	=65	=65	=65	=65	=65	=65	=65	=65	=65	=65
4B\	6	.	4b\	.	4dd\	.	2.ryy	2.ryy	2.ryy	2.ryy	4dd\	in	2.ryy	2.ryy	2.ryy
4A\	.	.	2b\	.	2dd\	.	.	.	.	.	2dd\	splen-	.	.	.
4G\	.	.	.	.	.	.	.	.	.	.	.	.	.	.	.
=66	=66	=66	=66	=66	=66	=66	=66	=66	=66	=66	=66	=66	=66	=66	=66
4c\	.	.	4cc\	.	4ee\	.	2.ryy	2.ryy	2.ryy	2.ryy	4ee\	-do-	2.ryy	2.ryy	2.ryy
4B\	.	.	4dd\	.	4dd\	.	.	.	.	.	4dd\	-ri-	.	.	.
4A\	.	.	4ee\	.	4cc\	.	.	.	.	.	4cc\	-bus	.	.	.
=67	=67	=67	=67	=67	=67	=67	=67	=67	=67	=67	=67	=67	=67	=67	=67
4F\	.	.	4ff\	.	4a/	.	2.ryy	2.ryy	2.ryy	2.ryy	4a\	Sanc-	2.ryy	2.ryy	2.ryy
.	.	.	8qqee/	.	.	.	.	.	.	.	.	.	.	.	.
!	!	!	!LO:SIC:v:t=custos cc	!	!	!	!	!	!	!	!	!	!	!	!
4G\	.	.	2dd\	.	2b/	.	.	.	.	.	2b\	-to-	.	.	.
4GG/	.	.	.	.	.	.	.	.	.	.	.	.	.	.	.
!	!	!	!	!	!	!	!	!	!	!	!LO:LB:g=original	!	!	!	!
=68	=68	=68	=68	=68	=68	=68	=68	=68	=68	=68	=68	=68	=68	=68	=68
!	!	!	!	!LO:DY:a:t=f.	!	!LO:DY:a	!	!	!	!	!	!	!	!	!
4C/	.	.	12cc\L	f	12cc\L	f	2.ryy	2.ryy	2.ryy	2.ryy	4cc\	-rum	2.ryy	2.ryy	2.ryy
.	.	.	12ee\	.	12ee\	.	.	.	.	.	.	.	.	.	.
.	.	.	12gg\J	.	12gg\J	.	.	.	.	.	.	.	.	.	.
4E\	.	.	4ccc\	.	4ccc\	.	.	.	.	.	4r	.	.	.	.
4C/	.	.	4cc\	.	4cc\	.	.	.	.	.	4g/	ex	.	.	.
=69	=69	=69	=69	=69	=69	=69	=69	=69	=69	=69	=69	=69	=69	=69	=69
!	!	!	!	!LO:DY:a:t=p.	!	!LO:DY:a:rj:t=p.	!	!	!	!	!	!	!	!	!
4F\	.	.	2.a/	p	4a/	p	2.ryy	2.ryy	2.ryy	2.ryy	4a\	u-	2.ryy	2.ryy	2.ryy
4F\	.	.	.	.	4b/	.	.	.	.	.	4b\	-te-	.	.	.
4F\	.	.	.	.	4cc\	.	.	.	.	.	4cc\	-ro	.	.	.
=70	=70	=70	=70	=70	=70	=70	=70	=70	=70	=70	=70	=70	=70	=70	=70
4E\	.	.	2.g/	.	4g/	.	2.ryy	2.ryy	2.ryy	2.ryy	4g\	an-	2.ryy	2.ryy	2.ryy
4E\	5	.	.	.	4b\	.	.	.	.	.	4b\	-te	.	.	.
4E\	6	.	.	.	4cc\	.	.	.	.	.	4cc\	lu-	.	.	.
!LO:LB:g=original	!	!	!	!	!	!	!	!	!	!	!	!	!	!	!
=71	=71	=71	=71	=71	=71	=71	=71	=71	=71	=71	=71	=71	=71	=71	=71
4D\	.	.	2.f/	.	4f/	.	2.ryy	2.ryy	2.ryy	2.ryy	4f/	-ci-	2.ryy	2.ryy	2.ryy
4D\	6	.	.	.	4b\	.	.	.	.	.	4b\	-fe-	.	.	.
4D\	7	.	.	.	4cc\	.	.	.	.	.	4cc\	-rum	.	.	.
=72	=72	=72	=72	=72	=72	=72	=72	=72	=72	=72	=72	=72	=72	=72	=72
4C/	.	.	4e/	.	4d/	.	2.ryy	2.ryy	2.ryy	2.ryy	4e/	ge-	2.ryy	2.ryy	2.ryy
4C/	7	.	4g/	.	4b\	.	.	.	.	.	4b\	-nu-	.	.	.
4C/	8	.	4e/	.	4cc\	.	.	.	.	.	4cc\	-i	.	.	.
=73	=73	=73	=73	=73	=73	=73	=73	=73	=73	=73	=73	=73	=73	=73	=73
4F\	.	.	4a/	.	4a/	.	2.ryy	2.ryy	2.ryy	2.ryy	(4a\	ge-	2.ryy	2.ryy	2.ryy
4F\	.	.	4ff\	.	4aa\	.	.	.	.	.	4ff\	.	.	.	.
4F\	6	.	4dd\	.	4ff\	.	.	.	.	.	4dd\)	.	.	.	.
!	!	!	!	!	!LO:LB:g=original	!	!	!	!	!	!	!	!	!	!
=74	=74	=74	=74	=74	=74	=74	=74	=74	=74	=74	=74	=74	=74	=74	=74
4G\	.	.	2g/	.	2dd\	.	2.ryy	2.ryy	2.ryy	2.ryy	4.bt\	.	2.ryy	2.ryy	2.ryy
4F\	.	.	.	.	.	.	.	.	.	.	.	.	.	.	.
.	.	.	.	.	.	.	.	.	.	.	8b\	-nu-	.	.	.
4E\	6	.	4f/	.	4cc\	.	.	.	.	.	4cc\	-i	.	.	.
=75	=75	=75	=75	=75	=75	=75	=75	=75	=75	=75	=75	=75	=75	=75	=75
!	!	!	!	!	!	!	!	!	!	!	!LO:TX:t=P:problem=poprawki w tekście słownym	!	!	!	!
4F\	.	.	4g/	.	8dd\L	.	2.ryy	2.ryy	2.ryy	2.ryy	8dd\L	ge-	2.ryy	2.ryy	2.ryy
.	.	.	.	.	8ff\	.	.	.	.	.	8ff\J	.	.	.	.
4G\	.	.	4f/	.	8ee\	.	.	.	.	.	8ee\L	-nu-	.	.	.
.	.	.	.	.	8dd\	.	.	.	.	.	8dd\J	.	.	.	.
4GG/	.	.	4d/	.	8cc\	.	.	.	.	.	8cc\L	-i	.	.	.
.	.	.	.	.	8b\J	.	.	.	.	.	8b\J	.	.	.	.
=76	=76	=76	=76	=76	=76	=76	=76	=76	=76	=76	=76	=76	=76	=76	=76
4C/	.	.	12ee\L	.	12ee\L	.	2.ryy	2.ryy	2.ryy	2.ryy	4cc\	te	2.ryy	2.ryy	2.ryy
.	.	.	12ff\	.	12ff\	.	.	.	.	.	.	.	.	.	.
.	.	.	12gg\J	.	12gg\J	.	.	.	.	.	.	.	.	.	.
4r	.	.	12aa\L	.	12aa\L	.	.	.	.	.	4r	.	.	.	.
.	.	.	12gg\	.	12gg\	.	.	.	.	.	.	.	.	.	.
.	.	.	12ff\J	.	12ff\J	.	.	.	.	.	.	.	.	.	.
4r	.	.	12ee\L	.	12ee\L	.	.	.	.	.	4r	.	.	.	.
.	.	.	12dd\	.	12dd\	.	.	.	.	.	.	.	.	.	.
.	.	.	12cc\J	.	12cc\J	.	.	.	.	.	.	.	.	.	.
=77	=77	=77	=77	=77	=77	=77	=77	=77	=77	=77	=77	=77	=77	=77	=77
4F\	.	.	4a/	.	4dd\	.	2.ryy	2.ryy	2.ryy	2.ryy	4dd\	ge-	2.ryy	2.ryy	2.ryy
4G\	7 4	.	4g/	.	4cc\	.	.	.	.	.	4cc\	-nu-	.	.	.
4GG/	x 3	.	4f/	.	4b\	.	.	.	.	.	4b\	-i	.	.	.
!	!	!	!	!	!	!	!	!	!	!	!LO:LB:g=original	!	!	!	!
=78	=78	=78	=78	=78	=78	=78	=78	=78	=78	=78	=78	=78	=78	=78	=78
!	!	!LO:DY:a:t=fort	!	!LO:DY:a:t=fort.	!	!LO:DY:a:t=f.	!	!	!	!	!	!	!	!	!
4c\	.	f	4cc\	f	4cc\	f	2.ryy	2.ryy	2.ryy	2.ryy	4cc\	te.	2.ryy	2.ryy	2.ryy
4c\	.	.	4cc\	.	4cc\	.	.	.	.	.	4r	.	.	.	.
4B\	6	.	16gg\LL	.	16gg\LL	.	.	.	.	.	4r	.	.	.	.
.	.	.	16ff\	.	16ff\	.	.	.	.	.	.	.	.	.	.
.	.	.	16ee\	.	16ee\	.	.	.	.	.	.	.	.	.	.
.	.	.	16dd\JJ	.	16dd\JJ	.	.	.	.	.	.	.	.	.	.
=79	=79	=79	=79	=79	=79	=79	=79	=79	=79	=79	=79	=79	=79	=79	=79
!	!	!	!	!	!	!	!	!	!	!	!LO:TX:a:t=23.	!	!	!	!
4A\	.	.	4cc\	.	4cc\	.	2.ryy	2.ryy	2.ryy	2.ryy	0.r	.	2.ryy	2.ryy	2.ryy
4A\	.	.	4cc\	.	4cc\	.	.	.	.	.	.	.	.	.	.
4E\	6	.	16gg\LL	.	16gg\LL	.	.	.	.	.	.	.	.	.	.
.	.	.	16ee\	.	16ee\	.	.	.	.	.	.	.	.	.	.
.	.	.	16dd\	.	16dd\	.	.	.	.	.	.	.	.	.	.
.	.	.	16cc\JJ	.	16cc\JJ	.	.	.	.	.	.	.	.	.	.
!	!	!	!LO:LB:g=original	!	!	!	!	!	!	!	!	!	!	!	!
=80	=80	=80	=80	=80	=80	=80	=80	=80	=80	=80	=80	=80	=80	=80	=80
4F\	6	.	12dd\L	.	12dd\L	.	2.ryy	2.ryy	2.ryy	2.ryy	.	.	2.ryy	2.ryy	2.ryy
.	.	.	12b\	.	12b\	.	.	.	.	.	.	.	.	.	.
.	.	.	12g\J	.	12g\J	.	.	.	.	.	.	.	.	.	.
!	!	!	!	!	!LO:TUP:b	!	!	!	!	!	!	!	!	!	!
4G\	7	.	12d/L	.	12f/L	.	.	.	.	.	.	.	.	.	.
.	.	.	12c/	.	12e/	.	.	.	.	.	.	.	.	.	.
.	.	.	12d/J	.	12f/J	.	.	.	.	.	.	.	.	.	.
4GG/	_	.	8G/L	.	8d/L	.	.	.	.	.	.	.	.	.	.
.	.	.	8d/J	.	8f/J	.	.	.	.	.	.	.	.	.	.
=81	=81	=81	=81	=81	=81	=81	=81	=81	=81	=81	=81	=81	=81	=81	=81
4C/	5 4	.	4d/	.	4f/	.	2.ryy	2.ryy	2.ryy	2.ryy	.	.	2.ryy	2.ryy	2.ryy
4E\	6	.	4c/	.	4e/	.	.	.	.	.	.	.	.	.	.
4G\	.	.	4r	.	4r	.	.	.	.	.	.	.	.	.	.
!LO:LB:g=original	!	!	!	!	!	!	!	!	!	!	!	!	!	!	!
=82	=82	=82	=82	=82	=82	=82	=82	=82	=82	=82	=82	=82	=82	=82	=82
4c\	.	.	12cc\L	.	12cc\L	.	2.ryy	2.ryy	2.ryy	2.ryy	.	.	2.ryy	2.ryy	2.ryy
.	.	.	12dd\	.	12dd\	.	.	.	.	.	.	.	.	.	.
.	.	.	12ee\J	.	12ee\J	.	.	.	.	.	.	.	.	.	.
4c\	.	.	12ee\L	.	12ee\L	.	.	.	.	.	.	.	.	.	.
.	.	.	12ff\	.	12ff\	.	.	.	.	.	.	.	.	.	.
.	.	.	12gg\J	.	12gg\J	.	.	.	.	.	.	.	.	.	.
4c\	.	.	12ee\L	.	12ee\L	.	.	.	.	.	.	.	.	.	.
.	.	.	12dd\	.	12dd\	.	.	.	.	.	.	.	.	.	.
.	.	.	12cc\J	.	12cc\J	.	.	.	.	.	.	.	.	.	.
!	!	!	!	!	!LO:LB:g=original	!	!	!	!	!	!	!	!	!	!
=83	=83	=83	=83	=83	=83	=83	=83	=83	=83	=83	=83	=83	=83	=83	=83
4c\	.	.	12aa\L	.	12aa\L	.	2.ryy	2.ryy	2.ryy	2.ryy	0.r	.	2.ryy	2.ryy	2.ryy
.	.	.	12gg\	.	12gg\	.	.	.	.	.	.	.	.	.	.
.	.	.	12ff#X\J	.	12ff#X\J	.	.	.	.	.	.	.	.	.	.
.	.	.	8qqff#/	.	.	.	.	.	.	.	.	.	.	.	.
4B\	.	.	2gg\	.	2gg\	.	.	.	.	.	.	.	.	.	.
4G\	.	.	.	.	.	.	.	.	.	.	.	.	.	.	.
=84	=84	=84	=84	=84	=84	=84	=84	=84	=84	=84	=84	=84	=84	=84	=84
4c\	6	.	12cc\L	.	12cc\L	.	2.ryy	2.ryy	2.ryy	2.ryy	.	.	2.ryy	2.ryy	2.ryy
.	.	.	12b\	.	12b\	.	.	.	.	.	.	.	.	.	.
.	.	.	12a\J	.	12a\J	.	.	.	.	.	.	.	.	.	.
!	!	!	!LO:TUP:b	!	!LO:TUP:b	!	!	!	!	!	!	!	!	!	!
4d\	6 4	.	12b/L	.	12b/L	.	.	.	.	.	.	.	.	.	.
.	.	.	12a/	.	12a/	.	.	.	.	.	.	.	.	.	.
.	.	.	12g/J	.	12g/J	.	.	.	.	.	.	.	.	.	.
*	*	*	*Xtuplet	*	*	*	*	*	*	*	*	*	*	*	*
!	!	!	!	!	!LO:TUP:b	!	!	!	!	!	!	!	!	!	!
4D/	5 #	.	12a/L	.	12a/L	.	.	.	.	.	.	.	.	.	.
.	.	.	12g/	.	12g/	.	.	.	.	.	.	.	.	.	.
.	.	.	12f#X/J	.	12f#X/J	.	.	.	.	.	.	.	.	.	.
=85	=85	=85	=85	=85	=85	=85	=85	=85	=85	=85	=85	=85	=85	=85	=85
4G\	.	.	4.g/	.	4.g/	.	2.ryy	2.ryy	2.ryy	2.ryy	.	.	2.ryy	2.ryy	2.ryy
4G\	.	.	.	.	.	.	.	.	.	.	.	.	.	.	.
.	.	.	16a/LL	.	16a/LL	.	.	.	.	.	.	.	.	.	.
.	.	.	16b/JJ	.	16b/JJ	.	.	.	.	.	.	.	.	.	.
4F\	5	.	16cc\LL	.	16cc\LL	.	.	.	.	.	.	.	.	.	.
.	.	.	16b\	.	16dd\	.	.	.	.	.	.	.	.	.	.
.	.	.	16cc\	.	16ee\	.	.	.	.	.	.	.	.	.	.
.	.	.	16dd\JJ	.	16ffn\JJ	.	.	.	.	.	.	.	.	.	.
=86	=86	=86	=86	=86	=86	=86	=86	=86	=86	=86	=86	=86	=86	=86	=86
4E\	6	.	8ee\L	.	8gg\L	.	2.ryy	2.ryy	2.ryy	2.ryy	.	.	2.ryy	2.ryy	2.ryy
.	.	.	8ee\	.	8gg\	.	.	.	.	.	.	.	.	.	.
4E\	.	.	8ee\	.	8gg\	.	.	.	.	.	.	.	.	.	.
.	.	.	8ee\	.	8gg\	.	.	.	.	.	.	.	.	.	.
4D/	4 2	.	8ee\	.	8gg\	.	.	.	.	.	.	.	.	.	.
.	.	.	8ee\J	.	8gg\J	.	.	.	.	.	.	.	.	.	.
=87	=87	=87	=87	=87	=87	=87	=87	=87	=87	=87	=87	=87	=87	=87	=87
4C#X/	5	.	8ee\L	.	8gg\L	.	2.ryy	2.ryy	2.ryy	2.ryy	0.r	.	2.ryy	2.ryy	2.ryy
.	.	.	8gg\J	.	8bb-X\J	.	.	.	.	.	.	.	.	.	.
4C#/	.	.	12aa\L	.	12aa\L	.	.	.	.	.	.	.	.	.	.
.	.	.	12gg\	.	12gg\	.	.	.	.	.	.	.	.	.	.
.	.	.	12ff\J	.	12ff\J	.	.	.	.	.	.	.	.	.	.
4AA/	#	.	12ee\L	.	12ee\L	.	.	.	.	.	.	.	.	.	.
.	.	.	12dd\	.	12dd\	.	.	.	.	.	.	.	.	.	.
.	.	.	12cc#X\J	.	12cc#X\J	.	.	.	.	.	.	.	.	.	.
!	!	!	!LO:LB:g=original	!	!	!	!	!	!	!	!	!	!	!	!
=88	=88	=88	=88	=88	=88	=88	=88	=88	=88	=88	=88	=88	=88	=88	=88
4D\	.	.	4.dd\	.	4.dd\	.	2.ryy	2.ryy	2.ryy	2.ryy	.	.	2.ryy	2.ryy	2.ryy
4F\	.	.	.	.	.	.	.	.	.	.	.	.	.	.	.
.	.	.	16g/LL	.	16g/LL	.	.	.	.	.	.	.	.	.	.
.	.	.	16f#X/JJ	.	16a/JJ	.	.	.	.	.	.	.	.	.	.
4E\	5	.	16g/LL	.	16b\LL	.	.	.	.	.	.	.	.	.	.
.	.	.	16a/	.	16ccn\	.	.	.	.	.	.	.	.	.	.
.	.	.	16b/	.	16dd\	.	.	.	.	.	.	.	.	.	.
.	.	.	16ccn/JJ	.	16ee\JJ	.	.	.	.	.	.	.	.	.	.
=89	=89	=89	=89	=89	=89	=89	=89	=89	=89	=89	=89	=89	=89	=89	=89
4D/	.	.	8dd\L	.	2.ryy	.	2.ryy	2.ryy	2.ryy	2.ryy	.	.	2.ryy	2.ryy	2.ryy
.	.	.	8dd\	.	.	.	.	.	.	.	.	.	.	.	.
4D/	.	.	8dd\	.	.	.	.	.	.	.	.	.	.	.	.
.	.	.	8dd\	.	.	.	.	.	.	.	.	.	.	.	.
4Cn/	4 2	.	8dd\	.	.	.	.	.	.	.	.	.	.	.	.
.	.	.	8dd\J	.	.	.	.	.	.	.	.	.	.	.	.
=90	=90	=90	=90	=90	=90	=90	=90	=90	=90	=90	=90	=90	=90	=90	=90
!	!	!	!	!	!LO:TX:t=P:problem=brak taktu 89	!	!	!	!	!	!	!	!	!	!
4BB/	5	.	8dd\L	.	8ff\L	.	2.ryy	2.ryy	2.ryy	2.ryy	.	.	2.ryy	2.ryy	2.ryy
.	.	.	8ff\J	.	8aa\J	.	.	.	.	.	.	.	.	.	.
*	*	*	*tuplet	*	*Xtuplet	*	*	*	*	*	*	*	*	*	*
4BB/	6	.	12gg\L	.	12gg\L	.	.	.	.	.	.	.	.	.	.
.	.	.	12ff\	.	12ff\	.	.	.	.	.	.	.	.	.	.
.	.	.	12ee\J	.	12ee\J	.	.	.	.	.	.	.	.	.	.
4GG/	.	.	12dd\L	.	12dd\L	.	.	.	.	.	.	.	.	.	.
.	.	.	12cc\	.	12cc\	.	.	.	.	.	.	.	.	.	.
.	.	.	12b\J	.	12b\J	.	.	.	.	.	.	.	.	.	.
!	!	!	!	!	!LO:LB:g=original	!	!	!	!	!	!	!	!	!	!
=91	=91	=91	=91	=91	=91	=91	=91	=91	=91	=91	=91	=91	=91	=91	=91
4C/	.	.	4.cc\	.	4.cc\	.	2.ryy	2.ryy	2.ryy	2.ryy	0.r	.	2.ryy	2.ryy	2.ryy
4E\	.	.	.	.	.	.	.	.	.	.	.	.	.	.	.
*	*	*	*Xtuplet	*	*	*	*	*	*	*	*	*	*	*	*
.	.	.	24g\LL	.	24g\LL	.	.	.	.	.	.	.	.	.	.
.	.	.	24cc\	.	24cc\	.	.	.	.	.	.	.	.	.	.
.	.	.	24ee\JJ	.	24ee\JJ	.	.	.	.	.	.	.	.	.	.
!	!	!	!LO:TX:t=P:problem=mixed beam	!	!LO:TX:t=P:problem=mixed beam	!	!	!	!	!	!	!	!	!	!
4C/	.	.	8gg\L	.	8gg\L	.	.	.	.	.	.	.	.	.	.
.	.	.	8g/J	.	8g/J	.	.	.	.	.	.	.	.	.	.
=92	=92	=92	=92	=92	=92	=92	=92	=92	=92	=92	=92	=92	=92	=92	=92
4F\	.	.	4.a/	.	4.a/	.	2.ryy	2.ryy	2.ryy	2.ryy	.	.	2.ryy	2.ryy	2.ryy
4D\	.	.	.	.	.	.	.	.	.	.	.	.	.	.	.
.	.	.	24a\LL	.	24a\LL	.	.	.	.	.	.	.	.	.	.
.	.	.	24dd\	.	24dd\	.	.	.	.	.	.	.	.	.	.
.	.	.	24ff\JJ	.	24ff\JJ	.	.	.	.	.	.	.	.	.	.
!	!	!	!LO:TX:t=P:problem=mixed beam	!	!LO:TX:t=P:problem=mixed beam	!	!	!	!	!	!	!	!	!	!
4F\	.	.	8aa\L	.	8aa\L	.	.	.	.	.	.	.	.	.	.
.	.	.	8a/J	.	8a/J	.	.	.	.	.	.	.	.	.	.
=93	=93	=93	=93	=93	=93	=93	=93	=93	=93	=93	=93	=93	=93	=93	=93
4G\	.	.	4.b/	.	4.b/	.	2.ryy	2.ryy	2.ryy	2.ryy	.	.	2.ryy	2.ryy	2.ryy
4d\	6	.	.	.	.	.	.	.	.	.	.	.	.	.	.
.	.	.	16g/LL	.	16g/LL	.	.	.	.	.	.	.	.	.	.
.	.	.	16a/JJ	.	16a/JJ	.	.	.	.	.	.	.	.	.	.
4c\	.	.	16b\LL	.	16b\LL	.	.	.	.	.	.	.	.	.	.
.	.	.	16cc\	.	16cc\	.	.	.	.	.	.	.	.	.	.
.	.	.	16dd\	.	16dd\	.	.	.	.	.	.	.	.	.	.
.	.	.	16ee\JJ	.	16ee\JJ	.	.	.	.	.	.	.	.	.	.
!LO:LB:g=original	!	!	!	!	!	!	!	!	!	!	!	!	!	!	!
=94	=94	=94	=94	=94	=94	=94	=94	=94	=94	=94	=94	=94	=94	=94	=94
4B\	5	.	8dd\L	.	8ff\L	.	2.ryy	2.ryy	2.ryy	2.ryy	.	.	2.ryy	2.ryy	2.ryy
.	.	.	8dd\	.	8ff\	.	.	.	.	.	.	.	.	.	.
4B\	.	.	8dd\	.	8ff\	.	.	.	.	.	.	.	.	.	.
.	.	.	8dd\	.	8ff\	.	.	.	.	.	.	.	.	.	.
4A\	6	.	8dd\	.	8ff\	.	.	.	.	.	.	.	.	.	.
.	.	.	8dd\J	.	8ff\J	.	.	.	.	.	.	.	.	.	.
=95	=95	=95	=95	=95	=95	=95	=95	=95	=95	=95	=95	=95	=95	=95	=95
*	*	*	*tuplet	*	*tuplet	*	*	*	*	*	*	*	*	*	*
4G\	.	.	12dd\L	.	12ff\L	.	2.ryy	2.ryy	2.ryy	2.ryy	0.r	.	2.ryy	2.ryy	2.ryy
.	.	.	12ee\	.	12gg\	.	.	.	.	.	.	.	.	.	.
.	.	.	12ff\J	.	12aa\J	.	.	.	.	.	.	.	.	.	.
!	!	!	!LO:LB:g=original	!	!	!	!	!	!	!	!	!	!	!	!
4A\	.	.	12ff\L	.	12aa\L	.	.	.	.	.	.	.	.	.	.
.	.	.	12ee\	.	12gg\	.	.	.	.	.	.	.	.	.	.
.	.	.	12dd\J	.	12ff\J	.	.	.	.	.	.	.	.	.	.
4B\	.	.	12dd\L	.	12ff\L	.	.	.	.	.	.	.	.	.	.
.	.	.	12ee\	.	12ee\	.	.	.	.	.	.	.	.	.	.
.	.	.	12ff\J	.	12dd\J	.	.	.	.	.	.	.	.	.	.
=96	=96	=96	=96	=96	=96	=96	=96	=96	=96	=96	=96	=96	=96	=96	=96
4c\	.	.	8ee\L	.	8ee\L	.	2.ryy	2.ryy	2.ryy	2.ryy	.	.	2.ryy	2.ryy	2.ryy
.	.	.	8cc\J	.	8gg\J	.	.	.	.	.	.	.	.	.	.
*	*	*	*	*	*Xtuplet	*	*	*	*	*	*	*	*	*	*
4A\	7	.	12ee\L	.	12gg\L	.	.	.	.	.	.	.	.	.	.
.	.	.	12ff\	.	12ff\	.	.	.	.	.	.	.	.	.	.
.	.	.	12gg\J	.	12ee\J	.	.	.	.	.	.	.	.	.	.
*	*	*	*	*	*tuplet	*	*	*	*	*	*	*	*	*	*
4E\	6	.	12gg\L	.	12ee\L	.	.	.	.	.	.	.	.	.	.
.	.	.	12ff\	.	12dd\	.	.	.	.	.	.	.	.	.	.
.	.	.	12ee\J	.	12cc\J	.	.	.	.	.	.	.	.	.	.
=97	=97	=97	=97	=97	=97	=97	=97	=97	=97	=97	=97	=97	=97	=97	=97
4F\	.	.	4ff\	.	8a\L	.	2.ryy	2.ryy	2.ryy	2.ryy	.	.	2.ryy	2.ryy	2.ryy
.	.	.	.	.	8dd\J	.	.	.	.	.	.	.	.	.	.
.	.	.	.	.	8qqcc/	.	.	.	.	.	.	.	.	.	.
4G\	6 4	.	4ee\	.	2b\	.	.	.	.	.	.	.	.	.	.
4GG/	5 3	.	4dd\	.	.	.	.	.	.	.	.	.	.	.	.
=98	=98	=98	=98	=98	=98	=98	=98	=98	=98	=98	=98	=98	=98	=98	=98
*	*	*	*	*	*Xtuplet	*	*	*	*	*	*	*	*	*	*
4C/	.	.	12cc\L	.	12ee\L	.	2.ryy	2.ryy	2.ryy	2.ryy	.	.	2.ryy	2.ryy	2.ryy
.	.	.	12ff\	.	12ff\	.	.	.	.	.	.	.	.	.	.
.	.	.	12gg\J	.	12gg\J	.	.	.	.	.	.	.	.	.	.
4D/	.	.	12aa\L	.	12aa\L	.	.	.	.	.	.	.	.	.	.
.	.	.	12gg\	.	12gg\	.	.	.	.	.	.	.	.	.	.
.	.	.	12ff\J	.	12ff\J	.	.	.	.	.	.	.	.	.	.
*	*	*	*	*	*tuplet	*	*	*	*	*	*	*	*	*	*
4E\	.	.	12ee\L	.	12ee\L	.	.	.	.	.	.	.	.	.	.
.	.	.	12dd\	.	12dd\	.	.	.	.	.	.	.	.	.	.
.	.	.	12cc\J	.	12cc\J	.	.	.	.	.	.	.	.	.	.
!	!	!	!	!	!LO:LB:g=original	!	!	!	!	!	!	!	!	!	!
=99	=99	=99	=99	=99	=99	=99	=99	=99	=99	=99	=99	=99	=99	=99	=99
4F\	.	.	4a/	.	8a\L	.	2.ryy	2.ryy	2.ryy	2.ryy	1.r	.	2.ryy	2.ryy	2.ryy
.	.	.	.	.	8dd\J	.	.	.	.	.	.	.	.	.	.
.	.	.	.	.	8qqcc/	.	.	.	.	.	.	.	.	.	.
4G\	7	.	4g/	.	2b\	.	.	.	.	.	.	.	.	.	.
4GG/	.	.	4f/	.	.	.	.	.	.	.	.	.	.	.	.
=100	=100	=100	=100	=100	=100	=100	=100	=100	=100	=100	=100	=100	=100	=100	=100
2C/	.	.	2e/	.	4cc\	.	2.ryy	2.ryy	2.ryy	2.ryy	.	.	2.ryy	2.ryy	2.ryy
.	.	.	.	.	4c/	.	.	.	.	.	.	.	.	.	.
4r	.	.	4r	.	4r	.	.	.	.	.	.	.	.	.	.
==	==	==	==	==	==	==	==	==	==	==	==	==	==	==	==
*-	*-	*-	*-	*-	*-	*-	*-	*-	*-	*-	*-	*-	*-	*-	*-
!!!system-decoration: [(s1,s2)],[(s3)],[(s4,s5,s6,s7,s8)],[(s9,s10,s11)]
!!!ENC: Mateusz Solarz
!!!END: 2020-07-28
!!!AIN: 1 alto 1 bass 5 empty 1 tenor 2 violn 1 vox
!!!ENC: Leszek Kubiak
!!!END: 2022-03-03
